icons/apple-fill.svg

<svg xmlns="http://www.w3.org/2000/svg" width="24" height="24" fill="none"><g clip-path="url(#a)"><g><path fill="#121212" d="M11.6236 7.22198C10.7476 7.22198 9.39157 6.22598 7.96357 6.26198C6.07957 6.28598 4.35157 7.35397 3.37957 9.04597C1.42357 12.442 2.87557 17.458 4.78357 20.218C5.71957 21.562 6.82357 23.074 8.28757 23.026C9.69157 22.966 10.2196 22.114 11.9236 22.114C13.6156 22.114 14.0956 23.026 15.5836 22.99C17.0956 22.966 18.0556 21.622 18.9796 20.266C20.0476 18.706 20.4916 17.194 20.5156 17.11C20.4796 17.098 17.5756 15.982 17.5396 12.622C17.5156 9.81397 19.8316 8.46998 19.9396 8.40998C18.6196 6.47798 16.5916 6.26198 15.8836 6.21398C14.0356 6.06998 12.4876 7.22198 11.6236 7.22198ZM14.7436 4.38998C15.5236 3.45398 16.0396 2.14598 15.8956 0.849976C14.7796 0.897976 13.4356 1.59398 12.6316 2.52998C11.9116 3.35798 11.2876 4.68998 11.4556 5.96198C12.6916 6.05798 13.9636 5.32598 14.7436 4.38998Z"/></g></g><defs><clipPath id="a"><rect width="24" height="24" fill="white"/></clipPath></defs></svg>

<svg width="24" height="24" fill="none" xmlns="http://www.w3.org/2000/svg"><g clip-path="url(#a)"><path d="M11.624 7.222c-.876 0-2.232-.996-3.66-.96-1.884.024-3.612 1.092-4.584 2.784-1.956 3.396-.504 8.412 1.404 11.172.936 1.344 2.04 2.856 3.504 2.808 1.404-.06 1.932-.912 3.636-.912 1.692 0 2.172.912 3.66.876 1.512-.024 2.472-1.368 3.396-2.724 1.068-1.56 1.512-3.072 1.536-3.156-.036-.012-2.94-1.128-2.976-4.488-.024-2.808 2.292-4.152 2.4-4.212-1.32-1.932-3.348-2.148-4.056-2.196-1.848-.144-3.396 1.008-4.26 1.008Zm3.12-2.832c.78-.936 1.296-2.244 1.152-3.54-1.116.048-2.46.744-3.264 1.68-.72.828-1.344 2.16-1.176 3.432 1.236.096 2.508-.636 3.288-1.572Z" /></g><defs><clipPath id="a"><path fill="#fff" d="M0 0h24v24H0z"/></clipPath></defs></svg>
